X: 18874
T: the Parting   [G,Gm]
C: Cyril O'Donoghue
R: waltz
S: https://thesession.org/tunes/18874 2021-5-12
N: Duplicate portions converted to repeats. [JC]
M: 3/4
L: 1/8
K: G
D GA |:\
B3 c dc | B/c/B G2 GF | E2 CD E/F/G | ED B,D G,2 || G3 F GA |\
[1,3 B/c/B A2 G2 | F4 G2 | A3 B cA :|[2,4 A/B/A E3 F | G4 GF | G3 :|
K: Gm
|: z3 |:\
B4 cB | A/B/A F4 | D3 C DF | A,/B,/A, G,4 || G3 A BA |\
[1,3 GF DC D^c | d2 A2 Bc | BA G4 :|[2,4 GF DC DF | G4 G^F | G3 :|
[1m~
~
~
~
~
~
~
~
~
~
~
~[m[29;111H4,1[11CAll[4;1H[?12l[?25h[?25l[29;1H[K[29;1H:[?12l[?25hq[?25l[?12l[?25h[?25l[29;1H[K[29;1H[?1l>[?12l[?25h[?1049l
